src/assets/icons/calendar-events,fancy,birthday.svg

<svg width="48" height="48" viewBox="0 0 48 48" fill="none" xmlns="http://www.w3.org/2000/svg">
<path d="M5 30L7.42166 28.9804C8.57 28.4968 9.14418 28.2551 9.75 28.2551C10.3558 28.2551 10.93 28.4968 12.0783 28.9804L12.1717 29.0196C13.32 29.5032 13.8942 29.7449 14.5 29.7449C15.1058 29.7449 15.68 29.5032 16.8283 29.0196L16.9217 28.9804C18.07 28.4968 18.6442 28.2551 19.25 28.2551C19.8558 28.2551 20.43 28.4968 21.5783 28.9804L21.6717 29.0196C22.82 29.5032 23.3942 29.7449 24 29.7449C24.6058 29.7449 25.18 29.5032 26.3283 29.0196L26.4217 28.9804C27.57 28.4968 28.1442 28.2551 28.75 28.2551C29.3558 28.2551 29.93 28.4968 31.0783 28.9804L31.1717 29.0196C32.32 29.5032 32.8942 29.7449 33.5 29.7449C34.1058 29.7449 34.68 29.5032 35.8283 29.0196L35.9217 28.9804C37.07 28.4968 37.6442 28.2551 38.25 28.2551C38.8558 28.2551 39.43 28.4968 40.5783 28.9804L43 30V23C43 19.2288 43 17.3431 41.8284 16.1716C40.6569 15 38.7712 15 35 15H13C9.22876 15 7.34315 15 6.17157 16.1716C5 17.3431 5 19.2288 5 23V30Z" fill="black"/>
<path opacity="0.6" fill-rule="evenodd" clip-rule="evenodd" d="M7.42166 28.9802L5 29.9998V38.9998C5 41.2089 6.79086 42.9998 9 42.9998H39C41.2091 42.9998 43 41.2089 43 38.9998V29.9998L40.5783 28.9802C39.43 28.4966 38.8558 28.2549 38.25 28.2549C37.6442 28.2549 37.07 28.4966 35.9217 28.9802L35.8283 29.0194C34.68 29.503 34.1058 29.7447 33.5 29.7447C32.8942 29.7447 32.32 29.503 31.1717 29.0194L31.0783 28.9802C29.93 28.4966 29.3558 28.2549 28.75 28.2549C28.1442 28.2549 27.57 28.4966 26.4217 28.9802L26.3283 29.0194C25.18 29.503 24.6058 29.7447 24 29.7447C23.3942 29.7447 22.82 29.503 21.6717 29.0194L21.5783 28.9802C20.43 28.4966 19.8558 28.2549 19.25 28.2549C18.6442 28.2549 18.07 28.4966 16.9217 28.9802L16.8283 29.0194C15.68 29.503 15.1058 29.7447 14.5 29.7447C13.8942 29.7447 13.32 29.503 12.1717 29.0194L12.1717 29.0194L12.0783 28.9802C10.93 28.4966 10.3558 28.2549 9.75 28.2549C9.14418 28.2549 8.57 28.4966 7.42166 28.9802Z" fill="black"/>
<path opacity="0.6" d="M22 11C22 9.89543 22.8954 9 24 9C25.1046 9 26 9.89543 26 11V15H22V11Z" fill="black"/>
<path opacity="0.6" d="M13 12C13 10.8954 13.8954 10 15 10C16.1046 10 17 10.8954 17 12V15H13V12Z" fill="black"/>
<path opacity="0.6" d="M31 12C31 10.8954 31.8954 10 33 10C34.1046 10 35 10.8954 35 12V15H31V12Z" fill="black"/>
<path d="M24 9C20.0426 9 23.0106 3 24 3C24.9893 3 27.9574 9 24 9Z" fill="black"/>
<path d="M33 10C29.0426 10 32.0106 4 33 4C33.9893 4 36.9574 10 33 10Z" fill="black"/>
<path d="M15 10C11.0426 10 14.0106 4 15 4C15.9893 4 18.9574 10 15 10Z" fill="black"/>
</svg>

<svg xmlns="http://www.w3.org/2000/svg" width="48" height="48" fill="none" viewBox="0 0 48 48">
  <rect width="38" height="38" x="5" y="5" fill="#000" opacity=".2" rx="4"/>
  <path fill="#000" d="M5 30l2.422-1.02c1.148-.483 1.722-.725 2.328-.725.606 0 1.18.242 2.328.725l.094.04c1.148.483 1.722.725 2.328.725.606 0 1.18-.242 2.328-.725l.094-.04c1.148-.483 1.722-.725 2.328-.725.606 0 1.18.242 2.328.725l.094.04c1.148.483 1.722.725 2.328.725.606 0 1.18-.242 2.328-.725l.094-.04c1.148-.483 1.722-.725 2.328-.725.606 0 1.18.242 2.328.725l.094.04c1.148.483 1.722.725 2.328.725.606 0 1.18-.242 2.328-.725l.094-.04c1.148-.483 1.722-.725 2.328-.725.606 0 1.18.242 2.328.725L43 30v-7c0-3.771 0-5.657-1.172-6.828C40.657 15 38.771 15 35 15H13c-3.771 0-5.657 0-6.828 1.172C5 17.343 5 19.229 5 23v7z"/>
  <path fill="#000" fill-rule="evenodd" d="M7.422 28.98L5 30v9a4 4 0 004 4h30a4 4 0 004-4v-9l-2.422-1.02c-1.148-.483-1.722-.725-2.328-.725-.606 0-1.18.242-2.328.725l-.094.04c-1.148.483-1.722.725-2.328.725-.606 0-1.18-.242-2.328-.726l-.094-.039c-1.148-.483-1.722-.725-2.328-.725-.606 0-1.18.242-2.328.725l-.094.04c-1.148.483-1.722.725-2.328.725-.606 0-1.18-.242-2.328-.726l-.094-.039c-1.148-.483-1.722-.725-2.328-.725-.606 0-1.18.242-2.328.725l-.094.04c-1.148.483-1.722.725-2.328.725-.606 0-1.18-.242-2.328-.726l-.094-.039c-1.148-.483-1.722-.725-2.328-.725-.606 0-1.18.242-2.328.725z" clip-rule="evenodd" opacity=".6"/>
  <path fill="#000" d="M22 11a2 2 0 114 0v4h-4v-4zM13 12a2 2 0 114 0v3h-4v-3zM31 12a2 2 0 114 0v3h-4v-3z" opacity=".6"/>
  <path fill="#000" d="M24 9c-3.957 0-.99-6 0-6s3.957 6 0 6zM33 10c-3.957 0-.99-6 0-6s3.957 6 0 6zM15 10c-3.957 0-.99-6 0-6s3.957 6 0 6z"/>
</svg>
